OtomadHelper/Web/src/assets/icons/consonant.svg

<svg width="16" height="16" viewBox="0 0 16 16" xmlns="http://www.w3.org/2000/svg">
	<path d="m5.7551 2.5c0.34146 9.9e-4 0.54617 0.10174 0.68083 0.21045 0.21486 0.17347 0.52966 0.13991 0.70312-0.07495 0.17347-0.21486 0.13991-0.52966-0.07495-0.70312-0.31705-0.25597-0.74598-0.43239-1.3141-0.43239-0.39226 0-2 0.29326-2 2.5v8c0 0.33808-0.071667 1.4433-1.0051 1.5-0.34146-1e-3 -0.54617-0.1017-0.68083-0.2105-0.21486-0.1734-0.52966-0.1399-0.70312 0.075-0.17347 0.2148-0.13991 0.5296 0.07495 0.7031 0.31706 0.256 0.74598 0.4324 1.3141 0.4324 0.42529 0 2-0.3179 2-2.5v-8c0-1.3772 0.82117-1.4917 1.0051-1.5z"/>
	<path d="m9.2542 2.8792c0.39867-0.69259 1.061-1.1292 1.9958-1.1292s1.5972 0.43665 1.9958 1.1292c0.3765 0.6541 0.5042 1.5074 0.5042 2.3708v3.25c0 0.86338-0.1277 1.7167-0.5042 2.3708-0.3986 0.6925-1.0609 1.1292-1.9958 1.1292s-1.5972-0.4367-1.9958-1.1292c-0.37651-0.6541-0.50416-1.5074-0.50416-2.3708v-3.25c0-0.86338 0.12765-1.7167 0.50416-2.3708zm0.49584 4.4958v1.125c0 0.79347 0.12235 1.4402 0.37081 1.8719 0.2264 0.3932 0.5641 0.6281 1.1292 0.6281s0.9028-0.2349 1.1291-0.6281c0.2485-0.4317 0.3709-1.0784 0.3709-1.8719v-1.125zm3-1h-3v-1.125c0-0.79347 0.12235-1.4402 0.37081-1.8719 0.2264-0.3932 0.5641-0.62812 1.1292-0.62812s0.9028 0.23492 1.1291 0.62812c0.2485 0.43168 0.3709 1.0784 0.3709 1.8719z" clip-rule="evenodd" fill-rule="evenodd"/>
</svg>

<svg width="16" height="16" viewBox="0 0 16 16" xmlns="http://www.w3.org/2000/svg">
	<path fill-rule="evenodd" clip-rule="evenodd" d="M5.75507 2.50001C6.09653 2.501 6.30124 2.60175 6.4359 2.71046C6.65076 2.88393 6.96556 2.85037 7.13902 2.63551C7.31249 2.42065 7.27893 2.10585 7.06407 1.93239C6.74702 1.67642 6.31809 1.5 5.74999 1.5L5.74861 1.5L5.74709 1.50001L5.74361 1.50004L5.73493 1.50018C5.7284 1.50032 5.72037 1.50056 5.71094 1.50098C5.6921 1.50182 5.66756 1.50336 5.63813 1.50616C5.57944 1.51175 5.50022 1.52247 5.40715 1.54316C5.2223 1.58423 4.97359 1.66667 4.72264 1.83397C4.19153 2.18804 3.74999 2.85435 3.74999 4V12C3.74999 12.8543 3.44153 13.188 3.22264 13.334C3.09859 13.4167 2.9723 13.4592 2.8759 13.4807C2.82834 13.4912 2.79038 13.4961 2.76704 13.4983C2.75577 13.4994 2.74819 13.4998 2.7449 13.5C2.40344 13.499 2.19873 13.3983 2.06407 13.2895C1.84921 13.1161 1.53441 13.1496 1.36095 13.3645C1.18748 13.5793 1.22104 13.8941 1.4359 14.0676C1.75296 14.3236 2.18188 14.5 2.74999 14.5L2.75136 14.5L2.75288 14.5L2.75636 14.5L2.76504 14.4998C2.77157 14.4997 2.7796 14.4994 2.78903 14.499C2.80787 14.4982 2.83241 14.4966 2.86184 14.4938C2.92053 14.4883 2.99976 14.4775 3.09283 14.4568C3.27768 14.4158 3.52638 14.3333 3.77734 14.166C4.30844 13.812 4.74999 13.1457 4.74999 12V4C4.74999 3.14565 5.05844 2.81196 5.27734 2.66603C5.40138 2.58333 5.52768 2.54077 5.62408 2.51934C5.67163 2.50878 5.7096 2.50388 5.73294 2.50165C5.7442 2.50058 5.75178 2.50016 5.75507 2.50001Z" />
	<path fill-rule="evenodd" clip-rule="evenodd" d="M9.25415 2.87924C9.65282 2.18665 10.3151 1.75 11.25 1.75C12.1849 1.75 12.8472 2.18665 13.2458 2.87924C13.6223 3.53334 13.75 4.38662 13.75 5.25V8.5C13.75 9.36338 13.6223 10.2167 13.2458 10.8708C12.8472 11.5633 12.1849 12 11.25 12C10.3151 12 9.65282 11.5633 9.25415 10.8708C8.87764 10.2167 8.74999 9.36338 8.74999 8.5V5.25C8.74999 4.38662 8.87764 3.53334 9.25415 2.87924ZM9.74999 7.375V8.5C9.74999 9.29347 9.87234 9.9402 10.1208 10.3719C10.3472 10.7651 10.6849 11 11.25 11C11.8151 11 12.1528 10.7651 12.3791 10.3719C12.6276 9.9402 12.75 9.29347 12.75 8.5V7.375H9.74999ZM12.75 6.375H9.74999V5.25C9.74999 4.45653 9.87234 3.8098 10.1208 3.37812C10.3472 2.98492 10.6849 2.75 11.25 2.75C11.8151 2.75 12.1528 2.98492 12.3791 3.37812C12.6276 3.8098 12.75 4.45653 12.75 5.25V6.375Z" />
</svg>
